actions/16/object-merge.svg

<?xml version="1.0" encoding="UTF-8" standalone="no"?>
<svg
   xmlns:dc="http://purl.org/dc/elements/1.1/"
   xmlns:cc="http://creativecommons.org/ns#"
   xmlns:rdf="http://www.w3.org/1999/02/22-rdf-syntax-ns#"
   xmlns:svg="http://www.w3.org/2000/svg"
   xmlns="http://www.w3.org/2000/svg"
   xmlns:xlink="http://www.w3.org/1999/xlink"
   width="16px"
   height="16px"
   id="svg3850"
   version="1.1">
  <defs
     id="defs3852">
    <linearGradient
       id="linearGradient4715">
      <stop
         style="stop-color:#555555;stop-opacity:1;"
         offset="0"
         id="stop4717" />
      <stop
         style="stop-color:#666666;stop-opacity:1;"
         offset="1"
         id="stop4719" />
    </linearGradient>
    <linearGradient
       xlink:href="#linearGradient4715"
       id="linearGradient4721"
       x1="8"
       y1="16"
       x2="8"
       y2="0"
       gradientUnits="userSpaceOnUse" />
  </defs>
  <metadata
     id="metadata3855">
    <rdf:RDF>
      <cc:Work
         rdf:about="">
        <dc:format>image/svg+xml</dc:format>
        <dc:type
           rdf:resource="http://purl.org/dc/dcmitype/StillImage" />
      </cc:Work>
    </rdf:RDF>
  </metadata>
  <g
     id="layer1">
    <path
       style="color:#bebebe;fill:url(#linearGradient4721);fill-opacity:1;fill-rule:nonzero;stroke:none;stroke-width:1;marker:none;visibility:visible;display:inline;overflow:visible;enable-background:accumulate"
       d="m 8,1.09375 -0.40625,0.625 -4,6 L 3.0625,8.5 4,8.5 l 2.5,0 0,0.5 c 0,0 -0.00921,0.8798886 -0.53125,1.75 C 5.4312439,11.645847 4.5995036,12.5 2,12.5 l -1,0 -0.5,0 0,0.5 0,2 0,0.5 0.5,0 1,0 c 3.0401949,0 4.9049782,-1.291201 6,-2.71875 C 9.0950218,14.208799 10.959805,15.5 14,15.5 l 1,0 0.5,0 0,-0.5 0,-2 0,-0.5 -0.5,0 -1,0 c -2.599504,0 -3.431244,-0.854154 -3.96875,-1.75 C 9.5091892,9.8798957 9.5,9 9.5,9 l 0,-0.5 2.5,0 0.9375,0 -0.53125,-0.78125 -4,-6 L 8,1.09375 z"
       id="path2843-39-5-5" />
    <path
       id="path4382"
       d="m 8,1.09375 -0.40625,0.625 -4,6 L 3.0625,8.5 4,8.5 l 2.5,0 0,0.5 c 0,0 -0.00921,0.8798886 -0.53125,1.75 C 5.4312439,11.645847 4.5995036,12.5 2,12.5 l -1,0 -0.5,0 0,0.5 0,2 0,0.5 0.5,0 1,0 c 3.0401949,0 4.9049782,-1.291201 6,-2.71875 C 9.0950218,14.208799 10.959805,15.5 14,15.5 l 1,0 0.5,0 0,-0.5 0,-2 0,-0.5 -0.5,0 -1,0 c -2.599504,0 -3.431244,-0.854154 -3.96875,-1.75 C 9.5091892,9.8798957 9.5,9 9.5,9 l 0,-0.5 2.5,0 0.9375,0 -0.53125,-0.78125 -4,-6 L 8,1.09375 z"
       style="opacity:0.61000001;color:#bebebe;fill:none;stroke:#000000;stroke-width:1;stroke-opacity:1;marker:none;visibility:visible;display:inline;overflow:visible;enable-background:accumulate" />
    <path
       style="color:#bebebe;fill:#ffffff;fill-opacity:1;fill-rule:nonzero;stroke:none;stroke-width:1;marker:none;visibility:visible;display:inline;overflow:visible;enable-background:accumulate;opacity:0.2"
       d="M 8 2 L 4 8 L 4.65625 8 L 8 3 L 11.34375 8 L 12 8 L 8 2 z M 7 9 C 7 9 7.0034618 10.004596 6.40625 11 C 6.1150277 11.485372 5.6950568 12.029198 5 12.40625 C 4.3049432 12.783302 3.3545157 13 2 13 L 1 13 L 1 14 L 2 14 C 3.3545157 14 4.3049432 13.783302 5 13.40625 C 5.6950568 13.029198 6.1150277 12.485372 6.40625 12 C 7.00346 11.004596 7 10 7 10 L 7 9.5 L 7 9 z M 9 9 L 9 9.5 L 9 10 C 9 10 8.99651 11.004594 9.59375 12 C 9.8849722 12.485372 10.304943 13.029198 11 13.40625 C 11.695057 13.783302 12.645484 14 14 14 L 15 14 L 15 13 L 14 13 C 12.645484 13 11.695057 12.783302 11 12.40625 C 10.304943 12.029198 9.8849722 11.485372 9.59375 11 C 8.99651 10.004594 9 9 9 9 z "
       id="path4384" />
  </g>
</svg>

<svg xmlns="http://www.w3.org/2000/svg" xmlns:xlink="http://www.w3.org/1999/xlink" viewBox="0 0 16 16"><defs><linearGradient id="a"><stop offset="0" stop-color="#555"/><stop offset="1" stop-color="#666"/></linearGradient><linearGradient xlink:href="#a" id="b" x1="8" y1="16" x2="8" gradientUnits="userSpaceOnUse"/></defs><g color="#bebebe"><path d="M8 1.094l-.406.625-4 6-.53.78H6.5V9s-.01.88-.53 1.75C5.43 11.646 4.6 12.5 2 12.5H.5v3H2c3.04 0 4.905-1.29 6-2.72 1.095 1.43 2.96 2.72 6 2.72h1.5v-3H14c-2.6 0-3.43-.854-3.97-1.75C9.51 9.88 9.5 9 9.5 9v-.5h3.438l-.532-.78-4-6L8 1.093z" fill="url(#b)" overflow="visible"/><path d="M8 1.094l-.406.625-4 6-.53.78H6.5V9s-.01.88-.53 1.75C5.43 11.646 4.6 12.5 2 12.5H.5v3H2c3.04 0 4.905-1.29 6-2.72 1.095 1.43 2.96 2.72 6 2.72h1.5v-3H14c-2.6 0-3.43-.854-3.97-1.75C9.51 9.88 9.5 9 9.5 9v-.5h3.438l-.532-.78-4-6L8 1.093z" opacity=".61" fill="none" stroke="#000" overflow="visible"/><path d="M8 2L4 8h.656L8 3l3.344 5H12L8 2zM7 9s.003 1.005-.594 2c-.29.485-.71 1.03-1.406 1.406-.695.377-1.645.594-3 .594H1v1h1c1.355 0 2.305-.217 3-.594.695-.377 1.115-.92 1.406-1.406.597-.995.594-2 .594-2V9zm2 0v1s-.003 1.005.594 2c.29.485.71 1.03 1.406 1.406.695.377 1.645.594 3 .594h1v-1h-1c-1.355 0-2.305-.217-3-.594-.695-.377-1.115-.92-1.406-1.406C8.997 10.005 9 9 9 9z" fill="#fff" overflow="visible" opacity=".2"/></g></svg>
